Adwaita++/actions/16/format-number-percent.svg

<svg height="16" viewBox="0 0 16 16" width="16" xmlns="http://www.w3.org/2000/svg">
  <path d="m4.5 1c-1.9212 0-3.5 1.5789-3.5 3.5 0 1.9212 1.5788 3.5 3.5 3.5.8976 0 1.7022187-.3684406 2.3242188-.9316406l-3.875 5.8144526a1.0001 1.0001 0 0 0 .2636718 1.376954l.8125.5625a1.0001 1.0001 0 0 0 1.4003906-.267578l2.8125-4.21875c-.1329999.368-.2382812.752062-.2382812 1.164062 0 1.921 1.5788 3.5 3.5 3.5 1.921 0 3.5-1.579 3.5-3.5 0-1.9212-1.579-3.5-3.5-3.5-.898 0-1.7022187.3684406-2.3242188.9316406l3.8749998-5.8144531a1.0001 1.0001 0 0 0 -.263672-1.3769531l-.8125-.5625a1.0001 1.0001 0 0 0 -1.40039.2675781l-2.8125002 4.21875c.133-.3683.2382812-.7521625.2382812-1.1640625 0-1.9211-1.5788-3.5-3.5-3.5zm0 2c.864 0 1.5.636 1.5 1.5s-.636 1.5-1.5 1.5-1.5-.636-1.5-1.5.636-1.5 1.5-1.5zm7 7c.864 0 1.5.636 1.5 1.5s-.636 1.5-1.5 1.5-1.5-.636-1.5-1.5.636-1.5 1.5-1.5z" fill="#474747"/>
</svg>

<svg xmlns="http://www.w3.org/2000/svg" width="16" height="16" viewBox="0 0 16 16">
 <defs>
  <style id="current-color-scheme" type="text/css">
   .ColorScheme-Text { color:#474747; } .ColorScheme-Highlight { color:#4285f4; }
  </style>
 </defs>
 <path style="fill:currentColor" class="ColorScheme-Text" d="M 4.5 1 C 2.5788 1 1 2.5789 1 4.5 C 1 6.4212 2.5788 8 4.5 8 C 5.3976 8 6.2022187 7.6315594 6.8242188 7.0683594 L 2.9492188 12.882812 A 1.0001 1.0001 0 0 0 3.2128906 14.259766 L 4.0253906 14.822266 A 1.0001 1.0001 0 0 0 5.4257812 14.554688 L 8.2382812 10.335938 C 8.1052813 10.703938 8 11.088 8 11.5 C 8 13.421 9.5788 15 11.5 15 C 13.421 15 15 13.421 15 11.5 C 15 9.5788 13.421 8 11.5 8 C 10.602 8 9.7977813 8.3684406 9.1757812 8.9316406 L 13.050781 3.1171875 A 1.0001 1.0001 0 0 0 12.787109 1.7402344 L 11.974609 1.1777344 A 1.0001 1.0001 0 0 0 10.574219 1.4453125 L 7.7617188 5.6640625 C 7.8947188 5.2957625 8 4.9119 8 4.5 C 8 2.5789 6.4212 1 4.5 1 z M 4.5 3 C 5.364 3 6 3.636 6 4.5 C 6 5.364 5.364 6 4.5 6 C 3.636 6 3 5.364 3 4.5 C 3 3.636 3.636 3 4.5 3 z M 11.5 10 C 12.364 10 13 10.636 13 11.5 C 13 12.364 12.364 13 11.5 13 C 10.636 13 10 12.364 10 11.5 C 10 10.636 10.636 10 11.5 10 z"/>
</svg>
